X:1
T: The Little Stack of Barley
C:
R:Reel
Q: 232
K:G
M:4/4
L:1/8
|:Bd|ef ed Be dB|AG EG Ac BA|GF GA BA ((3Bcd) |e2 A2 A2 Bd|
ef ed Be dB|AG EG Ac BA|GF GA Bd AB|G2 GG G2:|
|:GA|Bd ef g2 fg|ag fg eg d2|gf ed BA ((3Bcd) |e2 AA A2 Bd|
((3efg) af g2 fe|dB AG Ac BA|GF GA Bd AB|G2 GG G2:|
